app/assets/icons/polaris/CategoriesMajor.svg

<svg viewBox="0 0 20 20" xmlns="http://www.w3.org/2000/svg"><path d="M5.5 2a1.5 1.5 0 0 0-1.5 1.5v.5h12v-.5a1.5 1.5 0 0 0-1.5-1.5h-9zm-3.5 5.5a1.5 1.5 0 0 1 1.5-1.5h13a1.5 1.5 0 0 1 1.5 1.5v.5h-16v-.5zm-1 4a1.5 1.5 0 0 1 1.5-1.5h15a1.5 1.5 0 0 1 1.5 1.5v7a1.5 1.5 0 0 1-1.5 1.5h-15a1.5 1.5 0 0 1-1.5-1.5v-7z"/></svg>

<svg viewBox="0 0 20 20" xmlns="http://www.w3.org/2000/svg"><path d="M5.5 2A1.5 1.5 0 0 0 4 3.5V4h12v-.5A1.5 1.5 0 0 0 14.5 2h-9zM2 7.5A1.5 1.5 0 0 1 3.5 6h13A1.5 1.5 0 0 1 18 7.5V8H2v-.5zm-1 4A1.5 1.5 0 0 1 2.5 10h15a1.5 1.5 0 0 1 1.5 1.5v7a1.5 1.5 0 0 1-1.5 1.5h-15A1.5 1.5 0 0 1 1 18.5v-7z"/></svg>
